icons/op-chart1-24.svg

<svg width="24" height="24" viewBox="0 0 24 24" fill="none" xmlns="http://www.w3.org/2000/svg">
<path d="M17.8667 7.15385V16.8462H6.13333V7.15385H17.8667ZM20 5H4V19H20V5ZM14.8235 14.5339L12.6275 12.2217L10.5255 14.3756L8.48627 12.3484L7.67059 13.8688C7.51373 14.1222 7.2 14.2489 6.94902 14.0905C6.66667 13.9638 6.57255 13.6154 6.72941 13.362L8.23529 10.5747L10.4941 12.8552L12.6275 10.7014L14.5412 12.6968L16.3294 9.0543C16.4549 8.80091 16.7686 8.70588 17.051 8.83258C17.302 8.95928 17.4275 9.27602 17.2706 9.56109L14.8235 14.5339Z" fill="black"/>
</svg>

<svg xmlns="http://www.w3.org/2000/svg" width="24" height="24" viewBox="0 0 24 24"><path d="M17.867 7.154v9.692H6.133V7.154h11.734ZM20 5H4v14h16V5Zm-5.177 9.534-2.196-2.312-2.102 2.154-2.039-2.028-.815 1.521c-.157.253-.471.38-.722.222a.51.51 0 0 1-.22-.729l1.506-2.787 2.259 2.28 2.133-2.154 1.914 1.996 1.788-3.643c.126-.253.44-.348.722-.221a.524.524 0 0 1 .22.728l-2.448 4.973Z"/></svg>
